X:1
T:The Pride of Bucktown
T:Rag Two-Step
T:Robert S. Roberts
%%score ( 1 2 ) 3
L:1/8
Q:1/4=90
M:2/4
K:F
V:1 treble nm="Honky Tonk Piano"
V:2 treble 
V:3 bass nm="Honky Tonk Piano"
V:1
 .[FAf] [F_Ae]2 .[FAd] | .[FAc]>.A .F.D | .C.=B,/.C/ .^C/.D/._E/.=E/ | .F2 z2 | %4
 z/ .f/.a/.c'/ z/ .c/.f/.a/ | z/ .A/.c/.f/ z/ .F/.A/.c/ | .[ca]/.f/.[^ca]/.f/ z/ .[da].[_ea]/ | %7
 .[eb]4 | z/ .g/.b/.d'/ z/ .e/.g/.b/ | z/ .c/.e/.g/ z/ .B/.c/.e/ | %10
 .[Ge]/.B/.[G_e]/.B/ z/ .[GBd].[GB^c]/ | .[Ac]4 | z/ .f/.a/.c'/ z/ .c/.f/.a/ | %13
 z/ .A/.c/.f/ z/ .F/.A/.c/ | z/ .[cfa].[=Bf_a]/ .[cf=a].[Bf_a] | .[ceg]4 | %16
 z/ .[=Bdg].[Bd^f]/ .[Bda].[Bdg] | z/ .[ceg].[ce^f]/ .[cea]/.g/.e/.c/ | %18
 z/ .[Gg].[_A_a]/ .[=A=a].[=B=b] | .[cc']4 | z/ .f/.a/.c'/ z/ .c/.f/.a/ | %21
 z/ .A/.c/.f/ z/ .F/.A/.c/ | .[ca]/.f/.[^ca]/.f/ z/ .[da].[_ea]/ | .[eb]4 | %24
 z/ .g/.b/.d'/ z/ .e/.g/.b/ | z/ .c/.e/.g/ z/ .B/.c/.e/ | .[Ge]/.B/.[G_e]/.B/ z/ .[GBd].[GB^c]/ | %27
 .[Ac]4 | z/ .f/.a/.c'/ z/ .c/.f/.a/ | z/ .A/.c/.f/ z/ .F/.A/.c/ | z/ .[Ff].[Ff]/ .[Ge].[A_e] | %31
 .[Bd]4 | z/ .[fd']._a/ .[fd'].a/.[fd']/ | z/ .[cc']/.a/.f/ .c.[ca] | %34
 z/ .[=Ba]/.g/.d/ .[_Bea].[Beg] | .[Acf]4 | .[Gf]/.d/.[_Af]/.d/ z/ .[=Adf].=B/ | .e.d .=B.A | %38
 .[Ge]/.c/.[_Ae]/.c/ z/ .[=Ace].[^Fc_e]/ | .[Gce].[cc'] .[=B=b].[Aa] | %40
 z/ .[Gg].=B/ .d/.g/.=b/.d'/ | .g'.[cc'] .[=B=b].[Aa] | z/ .[Gg].c/ .e/.g/.c'/.e'/ | %43
 .g'.[Gg] .[Aa].[_A_a] | .[Gf]/.d/.[_Af]/.d/ z/ .[=Adf].=B/ | .e.d .=B.A | %46
 .[Ge]/.c/.[_Ae]/.c/ z/ .[=Ace].[^Fc_e]/ | .[Gce].c .=B.c | z/ .[Fd].A/ .[^Fd]/.c/.=B/.A/ | %49
 z/ .G/.c/.e/ .g.[ce] | z/ .[Gg].[_A_a]/ .[=A=a].[=B=b] | .[cc']4 | z/ .f/.a/.c'/ z/ .c/.f/.a/ | %53
 z/ .A/.c/.f/ z/ .F/.A/.c/ | .[ca]/.f/.[^ca]/.f/ z/ .[da].[_ea]/ | .[eb]4 | %56
 z/ .g/.b/.d'/ z/ .e/.g/.b/ | z/ .c/.e/.g/ z/ .B/.c/.e/ | .[Ge]/.B/.[G_e]/.B/ z/ .[GBd].[GB^c]/ | %59
 .[Ac]4 | z/ .f/.a/.c'/ z/ .c/.f/.a/ | z/ .A/.c/.f/ z/ .F/.A/.c/ | z/ .[Ff].[Ff]/ .[Ge].[A_e] | %63
 .[Bd]4 | z/ .[fd']._a/ .[fd'].a/.[fd']/ | z/ .[cc']/.a/.f/ .c.[ca] | %66
 z/ .[=Ba]/.g/.d/ .[_Bea].[Beg] | .[Acf]4 | .[Ff]/.d/.[Gg]/.d/ z/ .[Aa].[Bb]/ | z .[fb] z .[fb] | %70
 .[Ff]/.d/.[Gg]/.d/ z/ .[Aa].[Bb]/ | z .[fb] z .[fb] | .[ff']/.a/.[_e_e']/.a/ z/ .[=B=b].[cc']/ | %73
 .[dd']/.f/.[cc']/.f/ z/ .[Bb].[=B=b]/ | .[cc'].[=B=b]/.[cc']/ z/ .[^c^c']/.[dd']/.[ee']/ | %75
 .[gg']/.[ff'].[_e_e']/ z/ .[cc']/.[Aa]/.[Gg]/ | .[Ff]/.d/.[Gg]/.d/ z/ .[Aa].[Bb]/ | %77
 z .[fb] z .[fb] | .[Gg]/.d/.[Aa]/.d/ z/ .[=B=b].[cc']/ | z .[gc'] z .[gc'] | %80
 z/ .[gg'].[b^c']/ .[gg'].[bc']/.[gg']/ | z/ .[ff']/.d'/.b/ .f.[fbd'] | %82
 z/ .[ebd']/.c'/.b/ .[_ead'].[eac'] | .[dfb]4 | .[Ff]/.d/.[Gg]/.d/ z/ .[Aa].[Bb]/ | %85
 z .[fb] z .[fb] | .[Ff]/.d/.[Gg]/.d/ z/ .[Aa].[Bb]/ | z .[fb] z .[fb] | %88
 .[ff']/.a/.[_e_e']/.a/ z/ .[=B=b].[cc']/ | .[dd']/.f/.[cc']/.f/ z/ .[Bb].[=B=b]/ | %90
 .[cc'].[=B=b]/.[cc']/ z/ .[^c^c']/.[dd']/.[ee']/ | .[gg']/.[ff'].[_e_e']/ z/ .[cc']/.[Aa]/.[Gg]/ | %92
 .[Ff]/.d/.[Gg]/.d/ z/ .[Aa].[Bb]/ | z .[fb] z .[fb] | .[Gg]/.d/.[Aa]/.d/ z/ .[=B=b].[cc']/ | %95
 z .[gc'] z .[gc'] | z/ .[gg'].[b^c']/ .[gg'].[bc']/.[gg']/ | z/ .[ff']/.d'/.b/ .f.[fbd'] | %98
 z/ .[ebd']/.c'/.b/ .[_ead'].[eac'] | [dfb]2 [fac'f']2 | z/ .[Gg].[Gg]/ .[Aa].[=B=b] | %101
 .[cc'].[dd'] .[_e_e'][Q:1/4=25][gb^c'g'][Q:1/4=22][Q:1/4=21] | %102
[Q:1/4=85] z/ .[ff']/.d'/.b/ .[ebd'].[_eac'] | [dfb]2 [bd'f'b']2 |] %104
V:2
 x4 | x4 | x4 | x4 | x4 | x4 | x4 | x4 | x4 | x4 | x4 | x4 | x4 | x4 | x4 | x4 | x4 | x4 | x4 | %19
 x4 | x4 | x4 | x4 | x4 | x4 | x4 | x4 | x4 | x4 | x4 | x4 | x4 | x4 | x4 | x4 | x4 | x4 | x4 | %38
 x4 | x4 | x4 | x4 | x4 | x4 | x4 | x4 | x4 | x4 | x4 | x4 | x4 | x4 | x4 | x4 | x4 | x4 | x4 | %57
 x4 | x4 | x4 | x4 | x4 | x4 | x4 | x4 | x4 | x4 | x4 | x4 | [dd']4 | x4 | [dd']4 | x4 | x4 | x4 | %75
 x4 | x4 | [dd']4 | x4 | [_e_e']4 | x4 | x4 | x4 | x4 | x4 | [dd']4 | x4 | [dd']4 | x4 | x4 | x4 | %91
 x4 | x4 | [dd']4 | x4 | [_e_e']4 | x4 | x4 | x4 | x4 | x4 | x4 | x4 | x4 |] %104
V:3
 .[F,,,F,,] [_A,,,_A,,]2 .[=B,,,=B,,] | .[C,,C,]2 z .[D,,D,] | .[C,,C,]2 [C,E,G,B,]2 | %3
 .[F,,F,].[A,CF] .[C,,C,].[A,CF] | .[F,,F,].[A,CF] .[C,,C,].[A,CF] | %5
 .[F,,F,].[A,CF] .[C,,C,].[A,CF] | .[F,,F,].[A,CF] .[C,,C,].[A,CF] | %7
 .[G,,G,].[G,B,CE] .[C,,C,].[G,B,CE] | .[E,,E,].[G,B,CE] .[C,,C,].[G,B,CE] | %9
 .[G,,G,].[G,B,CE] .[C,,C,].[G,B,CE] | .[E,,E,].[G,B,CE] .[C,,C,].[G,B,CE] | %11
 .[F,,F,].[A,CF] .[C,,C,].[A,CF] | .[F,,F,].[A,CF] .[C,,C,].[A,CF] | %13
 .[F,,F,].[A,CF] .[C,,C,].[A,CF] | .[F,,F,].[A,CF] .[C,,C,].[_A,CF] | %15
 .[C,,C,].[E,G,C] .G,,.[E,G,C] | .D,.[F,G,=B,] .G,,.[F,G,B,] | .C,.[E,G,C] .G,,.[E,G,C] | %18
 .D,.[F,G,=B,] .G,,.[F,G,B,] | z .[C,,C,] .[C,C]2 | .[F,,F,].[A,CF] .[C,,C,].[A,CF] | %21
 .[F,,F,].[A,CF] .[C,,C,].[A,CF] | .[F,,F,].[A,CF] .[C,,C,].[A,CF] | %23
 .[G,,G,].[G,B,CE] .[C,,C,].[G,B,CE] | .[E,,E,].[G,B,CE] .[C,,C,].[G,B,CE] | %25
 .[G,,G,].[G,B,CE] .[C,,C,].[G,B,CE] | .[E,,E,].[G,B,CE] .[C,,C,].[G,B,CE] | %27
 .[F,,F,].[A,CF] .[C,,C,].[A,CF] | .[F,,F,].[A,CF] .[C,,C,].[A,CF] | %29
 .[F,,F,].[A,CF] .[C,,C,].[A,CF] | .F,,.[F,A,C_E] .A,,.[F,A,CE] | .B,,.[F,B,D] .F,,.[F,B,D] | %32
 .[=B,,,=B,,].[F,_A,=B,D] .[D,,D,].[F,A,B,D] | .[F,,F,].[A,CF] .[C,,C,].[A,CF] | %34
 .[G,,,G,,].[D,F,G,=B,] .[C,,C,].[C,E,G,_B,] | .[F,A,].[C,,C,] .[F,,,F,,]2 | %36
 .G,,.[F,G,=B,] .=B,,.[F,G,B,] | .D,.[F,G,=B,] .G,,.[F,G,B,] | .C,.[E,G,C] .G,,.[E,G,C] | %39
 .C,.[E,G,C] .G,,.[E,G,C] | .D,.[F,G,=B,] .G,,.[F,G,B,] | .D,.[F,G,=B,] .G,,.[F,G,B,] | %42
 .C,.[E,G,C] .G,,.[E,G,C] | .C,.[C,,C,] .[E,,E,].[C,,C,] | .[G,,,G,,].[F,G,=B,] .=B,,.[F,G,B,] | %45
 .D,.[F,G,=B,] .G,,.[F,G,B,] | .C,.[E,G,C] .G,,.[E,G,C] | .C,.[E,G,C] .E,.[E,G,C] | %48
 .[F,,,F,,].[F,A,C] .[^F,,,^F,,].[^F,A,C] | .[G,,,G,,].[E,G,C] .C,.[E,G,C] | %50
 .G,,.[F,G,=B,] .=B,,.[F,G,B,] | .C,.[^C,,^C,] .[D,,D,].[E,,E,] | .[F,,F,].[A,CF] .[C,,C,].[A,CF] | %53
 .[F,,F,].[A,CF] .[C,,C,].[A,CF] | .[F,,F,].[A,CF] .[C,,C,].[A,CF] | %55
 .[G,,G,].[G,B,CE] .[C,,C,].[G,B,CE] | .[E,,E,].[G,B,CE] .[C,,C,].[G,B,CE] | %57
 .[G,,G,].[G,B,CE] .[C,,C,].[G,B,CE] | .[E,,E,].[G,B,CE] .[C,,C,].[G,B,CE] | %59
 .[F,,F,].[A,CF] .[C,,C,].[A,CF] | .[F,,F,].[A,CF] .[C,,C,].[A,CF] | %61
 .[F,,F,].[A,CF] .[C,,C,].[A,CF] | .F,,.[F,A,C_E] .A,,.[F,A,CE] | .B,,.[F,B,D] .F,,.[F,B,D] | %64
 .[=B,,,=B,,].[F,_A,=B,D] .[D,,D,].[F,A,B,D] | .[F,,F,].[A,CF] .[C,,C,].[A,CF] | %66
 .[G,,,G,,].[D,F,G,=B,] .[C,,C,].[C,E,G,_B,] | .[F,A,].[_E,,_E,] .[D,,D,].[C,,C,] | %68
 .[B,,,B,,].[F,B,D] .[F,,,F,,].[F,B,D] | .[B,,,B,,].[F,B,D] .[F,,,F,,].[F,B,D] | %70
 .[B,,,B,,].[F,B,D] .[F,,,F,,].[F,B,D] | .[B,,,B,,].[F,B,D] .[F,,,F,,].[F,B,D] | %72
 .[C,,C,].[F,A,_E] .F,,.[F,A,E] | .[B,,,B,,].[G,B,D] .[G,,,G,,].[G,B,D] | %74
 .[C,,C,].[G,B,CE] .[E,,E,].[G,B,CE] | .[F,,F,].[F,A,_E] .F,,.[F,A,E] | .B,,.[F,B,D] .F,,.[F,B,D] | %77
 .B,,.[F,B,D] .F,,.[F,B,D] | .[G,,,G,,].[G,=B,DF] .[=B,,,=B,,].[G,B,DF] | %79
 .[C,,C,].[G,C_E] .[_E,,_E,].[G,CE] | .[E,,E,].[G,B,^CE] .[G,,G,].[G,B,CE] | %81
 .[F,,F,].[F,B,D] .[D,,D,].[F,B,D] | .[C,,C,].[G,B,CE] .[F,,F,].[F,A,C_E] | %83
 .[B,D].[A,,A,] .[G,,G,].[F,,F,] | .[B,,,B,,].[F,B,D] .[F,,,F,,].[F,B,D] | %85
 .[B,,,B,,].[F,B,D] .[F,,,F,,].[F,B,D] | .[B,,,B,,].[F,B,D] .[F,,,F,,].[F,B,D] | %87
 .[B,,,B,,].[F,B,D] .[F,,,F,,].[F,B,D] | .[C,,C,].[F,A,_E] .F,,.[F,A,E] | %89
 .[B,,,B,,].[G,B,D] .[G,,,G,,].[G,B,D] | .[C,,C,].[G,B,CE] .[E,,E,].[G,B,CE] | %91
 .[F,,F,].[F,A,_E] .F,,.[F,A,E] | .B,,.[F,B,D] .F,,.[F,B,D] | .B,,.[F,B,D] .F,,.[F,B,D] | %94
 .[G,,,G,,].[G,=B,DF] .[=B,,,=B,,].[G,B,DF] | .[C,,C,].[G,C_E] .[_E,,_E,].[G,CE] | %96
 .[E,,E,].[G,B,^CE] .[G,,G,].[G,B,CE] | .[F,,F,].[F,B,D] .[D,,D,].[F,B,D] | %98
 .[C,,C,].[G,B,CE] .[F,,F,].[F,A,C_E] | [B,,B,]2 [F,,F,]2 | %100
 .[G,,,G,,].[G,=B,DF] .[=B,,,=B,,].[G,B,DF] | .[C,,C,].[G,C_E] .[_E,,_E,][=E,,=E,] | %102
 .[F,,F,].[F,B,D] .[C,,C,].[F,,F,] | .[B,,B,].[F,,F,] [B,,,B,,]2 |] %104

